X: 150107
M: 3/4
L: 1/8
K: G
(GA) |\
ud2 |\
c'2c'2d2 | b2b2g2 | f2fagb | a2a2d2 |
c'2c'2d2 | b2b2g2 | a2(fd)ef | g4 ::\
(Bc) |\
d2d2e2 | d2d2(Bd) | c2c2(Ac) | B2GABc |\
d2d2e2 | d2d2g2 | gfedef | g4 :|


